X:12018
T:Liza Jane
R:Reel
C:Trad.
O:USA
Z:Paul Hardy's Session Tunebook 2015 (see www.paulhardy.net). Creative Commons cc by-nc-sa licenced.
M:4/4
L:1/8
Q:1/4=160
K:A
ef|"A"a2f2 e2ce|fecB A4|a2f2 e2c2|"D"f4 f2ef|"A"a2f2 e2ce|fecB A2AB|"D"cBAF "E"E2F2|"A"A6:|
|:BA|"A"c4 c3A|B2A2- AABA|c2B2 A2E2|"D"F6- FE|"D"F2A2 "E"B3A|BAcA B2AB|"D"cBAF "E"E2F2|"A"A6:|

